Papirus/32x32/status/changes-prevent.svg

<svg xmlns="http://www.w3.org/2000/svg" width="32" height="32" version="1">
 <path fill="#d2d2d2" d="m16 2c-4.432 0-8 3.568-8 8v3h3v-3c0-2.77 2.23-5 5-5s5 2.23 5 5v3h3v-3c0-4.432-3.568-8-8-8z"/>
 <rect fill="#fecd38" width="17" height="22" x="-30" y="-27" rx="1.4" ry="1.4" transform="matrix(0,-1,-1,0,0,0)"/>
 <path fill="#fff" opacity=".1" d="m16 2c-4.432 0-8 3.568-8 8v1c0-4.432 3.568-8 8-8s8 3.568 8 8v-1c0-4.432-3.568-8-8-8z"/>
 <path fill="#fff" opacity=".1" d="m6.4004 13c-0.7756 0-1.4004 0.625-1.4004 1.4v1c0-0.775 0.6248-1.4 1.4004-1.4h19.2c0.775 0 1.4 0.625 1.4 1.4v-1c0-0.775-0.625-1.4-1.4-1.4h-19.2z"/>
 <path fill="#cb9a05" d="m5 27.6v1c0 0.775 0.6248 1.4 1.4004 1.4h19.2c0.775 0 1.4-0.625 1.4-1.4v-1c0 0.775-0.625 1.4-1.4 1.4h-19.2c-0.7752 0-1.4-0.625-1.4-1.4z"/>
 <path fill="#fff" opacity=".1" d="m5 26.6v1c0 0.775 0.6248 1.4 1.4004 1.4h19.2c0.775 0 1.4-0.625 1.4-1.4v-1c0 0.775-0.625 1.4-1.4 1.4h-19.2c-0.7752 0-1.4-0.625-1.4-1.4z"/>
 <rect fill="#fed96a" width="22" height="10" x="5" y="16" rx="0" ry="0"/>
 <path opacity=".2" d="m16 5c-2.77 0-5 2.23-5 5v1c0-2.77 2.23-5 5-5s5 2.23 5 5v-1c0-2.77-2.23-5-5-5zm-11 23.6v1c0 0.775 0.6248 1.4 1.4004 1.4h19.2c0.775 0 1.4-0.625 1.4-1.4v-1c0 0.775-0.625 1.4-1.4 1.4h-19.2c-0.7752 0-1.4-0.625-1.4-1.4z"/>
</svg>

<svg xmlns="http://www.w3.org/2000/svg" width="32" height="32" version="1">
 <path style="fill:#d2d2d2" d="M 16,2 C 11.568,2 8,5.568 8,10 V 13 H 11 V 10 C 11,7.23 13.23,5 16,5 18.77,5 21,7.23 21,10 V 13 H 24 V 10 C 24,5.568 20.432,2 16,2 Z"/>
 <rect style="fill:#ffb437" width="22" height="17" x="5" y="13" rx="1.4" ry="1.4"/>
 <path style="opacity:0.2;fill:#ffffff" d="M 16,2 C 11.568,2 8,5.568 8,10 V 11 C 8,6.568 11.568,3 16,3 20.432,3 24,6.568 24,11 V 10 C 24,5.568 20.432,2 16,2 Z"/>
 <path style="opacity:0.2;fill:#ffffff" d="M 6.4004,13 C 5.6248,13 5,13.625 5,14.4 V 15.4 C 5,14.625 5.6248,14 6.4004,14 H 25.6 C 26.375,14 27,14.625 27,15.4 V 14.4 C 27,13.625 26.375,13 25.6,13 Z"/>
 <rect style="fill:#fed96a" width="22" height="10" x="5" y="16" rx="0" ry="0"/>
 <path style="opacity:0.2" d="M 16,5 C 13.23,5 11,7.23 11,10 V 11 C 11,8.23 13.23,6 16,6 18.77,6 21,8.23 21,11 V 10 C 21,7.23 18.77,5 16,5 Z M 5,28.6 V 29.6 C 5,30.375 5.6248,31 6.4004,31 H 25.6 C 26.375,31 27,30.375 27,29.6 V 28.6 C 27,29.375 26.375,30 25.6,30 H 6.4004 C 5.6252,30 5.0004,29.375 5.0004,28.6 Z"/>
</svg>
